app/assets/images/icons/active/flights-tail.svg

<?xml version="1.0" encoding="UTF-8" standalone="no"?>
<svg width="32px" height="232px" viewBox="0 0 32 232" version="1.1" xmlns="http://www.w3.org/2000/svg" xmlns:xlink="http://www.w3.org/1999/xlink" xmlns:sketch="http://www.bohemiancoding.com/sketch/ns">
    <title>flights-tail</title>
    <description>Created with Sketch (http://www.bohemiancoding.com/sketch)</description>
    <defs></defs>
    <g id="Categories" stroke="none" stroke-width="1" fill="none" fill-rule="evenodd" sketch:type="MSPage">
        <path d="M31.7003138,131.30225 C31.2983138,130.89925 30.6433138,130.89925 30.2413138,131.30225 L28.8663138,132.67725 L22.3023138,132.04025 C21.7493138,132.04425 21.3033138,132.49225 21.3013138,133.04125 C21.3033138,133.59125 21.6583138,133.85125 22.3283138,134.10925 L26.2543138,135.28825 L24.2853138,137.25725 C24.1463138,137.39825 24.0563138,137.56925 24.0133138,137.74825 L21.9353138,137.65625 C21.6913138,137.65425 21.4913138,137.85625 21.4893138,138.10325 C21.4933138,138.34925 21.6913138,138.54825 21.9353138,138.55025 L23.9583138,139.05025 L24.4133138,141.07125 C24.4733138,141.35825 24.6593138,141.51825 24.9053138,141.52025 C25.1523138,141.51925 25.3553138,141.31725 25.3523138,141.07325 L25.2603138,138.98325 C25.4363138,138.94025 25.6043138,138.85325 25.7433138,138.71425 L27.7143138,136.74325 L28.8963138,140.67725 C29.1553138,141.34825 29.4133138,141.70225 29.9643138,141.70425 C30.5153138,141.70325 30.9613138,141.25525 30.9663138,140.70325 L30.3283138,134.12925 L31.6983138,132.75825 C32.1003138,132.35625 32.1013138,131.70625 31.7003138,131.30225 Z M23.1683138,139.66825 C23.1683138,139.66825 23.0743138,139.77025 22.8993138,139.96025 C22.7243138,140.14925 22.4753138,140.43625 22.1263138,140.77325 C21.4413138,141.45625 20.4313138,142.41625 19.0363138,143.35625 C18.3503138,143.84025 17.5473138,144.28425 16.6673138,144.69625 C15.7763138,145.07725 14.8113138,145.46025 13.7583138,145.65725 C13.2393138,145.79225 12.6943138,145.82725 12.1503138,145.91325 C11.6013138,145.93525 11.0423138,146.00625 10.4823138,145.96025 C10.2013138,145.94925 9.91931385,145.93625 9.63731385,145.92525 L8.79431385,145.82425 C8.22731385,145.77825 7.67931385,145.62325 7.11931385,145.52425 L7.01531385,145.50325 L6.98831385,145.49725 L6.93131385,145.48125 L6.88231385,145.46525 L6.68531385,145.40325 L6.29231385,145.28025 C6.02631385,145.18725 5.77531385,145.13925 5.50131385,145.01025 C4.96031385,144.76325 4.40331385,144.54725 3.93331385,144.21825 C2.93431385,143.64425 2.10931385,142.81325 1.47931385,141.91725 C0.818313848,141.03025 0.450313848,140.01225 0.222313848,139.05025 C0.174313848,138.80825 0.128313848,138.56725 0.0813138479,138.33125 C0.0533138479,138.09325 0.0383138479,137.85625 0.0223138479,137.62525 C-0.0306861521,137.16425 0.0263138479,136.71625 0.0343138479,136.29125 C0.0683138479,135.86625 0.145313848,135.46525 0.198313848,135.08325 C0.296313848,134.71025 0.390313848,134.35725 0.476313848,134.02425 C0.595313848,133.70625 0.706313848,133.40625 0.810313848,133.12925 C0.916313848,132.85325 1.05431385,132.61725 1.15531385,132.39925 C1.35531385,131.95325 1.59131385,131.64625 1.72231385,131.42525 C1.86131385,131.20625 1.93631385,131.09125 1.93631385,131.09125 C1.93631385,131.09125 1.88131385,131.21725 1.77831385,131.45425 C1.68031385,131.69425 1.50831385,132.03025 1.36731385,132.48925 C1.29631385,132.71725 1.19331385,132.96025 1.12631385,133.23925 C1.05831385,133.51625 0.984313848,133.81525 0.905313848,134.13625 C0.856313848,134.46025 0.806313848,134.80625 0.751313848,135.16925 C0.740313848,135.53625 0.692313848,135.91825 0.698313848,136.31725 C0.727313848,136.71525 0.705313848,137.13225 0.793313848,137.55225 C0.825313848,137.76225 0.857313848,137.97625 0.890313848,138.19225 C0.945313848,138.40425 1.00231385,138.61825 1.06031385,138.83625 C1.32131385,139.69025 1.70231385,140.56325 2.30331385,141.31825 L2.51631385,141.61225 L2.77031385,141.87425 C2.94431385,142.04425 3.10031385,142.23525 3.29131385,142.39325 C3.68531385,142.69525 4.06231385,143.02325 4.51431385,143.26325 C4.93831385,143.55525 5.40931385,143.72125 5.86431385,143.93125 C6.08531385,144.04025 6.37831385,144.09725 6.63231385,144.18425 L7.02631385,144.30225 L7.22431385,144.36125 L7.27231385,144.37725 L7.28531385,144.38025 C7.22631385,144.36225 7.27631385,144.37725 7.26631385,144.37325 L7.28931385,144.37925 L7.38731385,144.39925 C7.90931385,144.49625 8.42431385,144.65125 8.95031385,144.69825 L9.73431385,144.80325 L10.5193138,144.84525 C11.0383138,144.89025 11.5543138,144.83825 12.0653138,144.84125 C12.5703138,144.78025 13.0793138,144.76825 13.5633138,144.65725 C14.5483138,144.50525 15.4713138,144.21125 16.3363138,143.90325 C17.1863138,143.55625 17.9883138,143.20125 18.6903138,142.79225 C20.1073138,141.99925 21.2123138,141.18325 21.9753138,140.60225 C22.7403138,140.01925 23.1683138,139.66825 23.1683138,139.66825 Z M23.1683138,139.66825" id="flights-tail--lp-blue" fill="#206FAC" sketch:type="MSShapeGroup"></path>
        <path d="M31.7003138,91.30225 C31.2983138,90.89925 30.6433138,90.89925 30.2413138,91.30225 L28.8663138,92.67725 L22.3023138,92.04025 C21.7493138,92.04425 21.3033138,92.49225 21.3013138,93.04125 C21.3033138,93.59125 21.6583138,93.85125 22.3283138,94.10925 L26.2543138,95.28825 L24.2853138,97.25725 C24.1463138,97.39825 24.0563138,97.56925 24.0133138,97.74825 L21.9353138,97.65625 C21.6913138,97.65425 21.4913138,97.85625 21.4893138,98.10325 C21.4933138,98.34925 21.6913138,98.54825 21.9353138,98.55025 L23.9583138,99.05025 L24.4133138,101.07125 C24.4733138,101.35825 24.6593138,101.51825 24.9053138,101.52025 C25.1523138,101.51925 25.3553138,101.31725 25.3523138,101.07325 L25.2603138,98.98325 C25.4363138,98.94025 25.6043138,98.85325 25.7433138,98.71425 L27.7143138,96.74325 L28.8963138,100.67725 C29.1553138,101.34825 29.4133138,101.70225 29.9643138,101.70425 C30.5153138,101.70325 30.9613138,101.25525 30.9663138,100.70325 L30.3283138,94.12925 L31.6983138,92.75825 C32.1003138,92.35625 32.1013138,91.70625 31.7003138,91.30225 Z M23.1683138,99.66825 C23.1683138,99.66825 23.0743138,99.77025 22.8993138,99.96025 C22.7243138,100.14925 22.4753138,100.43625 22.1263138,100.77325 C21.4413138,101.45625 20.4313138,102.41625 19.0363138,103.35625 C18.3503138,103.84025 17.5473138,104.28425 16.6673138,104.69625 C15.7763138,105.07725 14.8113138,105.46025 13.7583138,105.65725 C13.2393138,105.79225 12.6943138,105.82725 12.1503138,105.91325 C11.6013138,105.93525 11.0423138,106.00625 10.4823138,105.96025 C10.2013138,105.94925 9.91931385,105.93625 9.63731385,105.92525 L8.79431385,105.82425 C8.22731385,105.77825 7.67931385,105.62325 7.11931385,105.52425 L7.01531385,105.50325 L6.98831385,105.49725 L6.93131385,105.48125 L6.88231385,105.46525 L6.68531385,105.40325 L6.29231385,105.28025 C6.02631385,105.18725 5.77531385,105.13925 5.50131385,105.01025 C4.96031385,104.76325 4.40331385,104.54725 3.93331385,104.21825 C2.93431385,103.64425 2.10931385,102.81325 1.47931385,101.91725 C0.818313848,101.03025 0.450313848,100.01225 0.222313848,99.05025 C0.174313848,98.80825 0.128313848,98.56725 0.0813138479,98.33125 C0.0533138479,98.09325 0.0383138479,97.85625 0.0223138479,97.62525 C-0.0306861521,97.16425 0.0263138479,96.71625 0.0343138479,96.29125 C0.0683138479,95.86625 0.145313848,95.46525 0.198313848,95.08325 C0.296313848,94.71025 0.390313848,94.35725 0.476313848,94.02425 C0.595313848,93.70625 0.706313848,93.40625 0.810313848,93.12925 C0.916313848,92.85325 1.05431385,92.61725 1.15531385,92.39925 C1.35531385,91.95325 1.59131385,91.64625 1.72231385,91.42525 C1.86131385,91.20625 1.93631385,91.09125 1.93631385,91.09125 C1.93631385,91.09125 1.88131385,91.21725 1.77831385,91.45425 C1.68031385,91.69425 1.50831385,92.03025 1.36731385,92.48925 C1.29631385,92.71725 1.19331385,92.96025 1.12631385,93.23925 C1.05831385,93.51625 0.984313848,93.81525 0.905313848,94.13625 C0.856313848,94.46025 0.806313848,94.80625 0.751313848,95.16925 C0.740313848,95.53625 0.692313848,95.91825 0.698313848,96.31725 C0.727313848,96.71525 0.705313848,97.13225 0.793313848,97.55225 C0.825313848,97.76225 0.857313848,97.97625 0.890313848,98.19225 C0.945313848,98.40425 1.00231385,98.61825 1.06031385,98.83625 C1.32131385,99.69025 1.70231385,100.56325 2.30331385,101.31825 L2.51631385,101.61225 L2.77031385,101.87425 C2.94431385,102.04425 3.10031385,102.23525 3.29131385,102.39325 C3.68531385,102.69525 4.06231385,103.02325 4.51431385,103.26325 C4.93831385,103.55525 5.40931385,103.72125 5.86431385,103.93125 C6.08531385,104.04025 6.37831385,104.09725 6.63231385,104.18425 L7.02631385,104.30225 L7.22431385,104.36125 L7.27231385,104.37725 L7.28531385,104.38025 C7.22631385,104.36225 7.27631385,104.37725 7.26631385,104.37325 L7.28931385,104.37925 L7.38731385,104.39925 C7.90931385,104.49625 8.42431385,104.65125 8.95031385,104.69825 L9.73431385,104.80325 L10.5193138,104.84525 C11.0383138,104.89025 11.5543138,104.83825 12.0653138,104.84125 C12.5703138,104.78025 13.0793138,104.76825 13.5633138,104.65725 C14.5483138,104.50525 15.4713138,104.21125 16.3363138,103.90325 C17.1863138,103.55625 17.9883138,103.20125 18.6903138,102.79225 C20.1073138,101.99925 21.2123138,101.18325 21.9753138,100.60225 C22.7403138,100.01925 23.1683138,99.66825 23.1683138,99.66825 Z M23.1683138,99.66825" id="flights-tail--white" fill="#FFFFFF" sketch:type="MSShapeGroup"></path>
        <path d="M31.7003138,51.30225 C31.2983138,50.89925 30.6433138,50.89925 30.2413138,51.30225 L28.8663138,52.67725 L22.3023138,52.04025 C21.7493138,52.04425 21.3033138,52.49225 21.3013138,53.04125 C21.3033138,53.59125 21.6583138,53.85125 22.3283138,54.10925 L26.2543138,55.28825 L24.2853138,57.25725 C24.1463138,57.39825 24.0563138,57.56925 24.0133138,57.74825 L21.9353138,57.65625 C21.6913138,57.65425 21.4913138,57.85625 21.4893138,58.10325 C21.4933138,58.34925 21.6913138,58.54825 21.9353138,58.55025 L23.9583138,59.05025 L24.4133138,61.07125 C24.4733138,61.35825 24.6593138,61.51825 24.9053138,61.52025 C25.1523138,61.51925 25.3553138,61.31725 25.3523138,61.07325 L25.2603138,58.98325 C25.4363138,58.94025 25.6043138,58.85325 25.7433138,58.71425 L27.7143138,56.74325 L28.8963138,60.67725 C29.1553138,61.34825 29.4133138,61.70225 29.9643138,61.70425 C30.5153138,61.70325 30.9613138,61.25525 30.9663138,60.70325 L30.3283138,54.12925 L31.6983138,52.75825 C32.1003138,52.35625 32.1013138,51.70625 31.7003138,51.30225 Z M23.1683138,59.66825 C23.1683138,59.66825 23.0743138,59.77025 22.8993138,59.96025 C22.7243138,60.14925 22.4753138,60.43625 22.1263138,60.77325 C21.4413138,61.45625 20.4313138,62.41625 19.0363138,63.35625 C18.3503138,63.84025 17.5473138,64.28425 16.6673138,64.69625 C15.7763138,65.07725 14.8113138,65.46025 13.7583138,65.65725 C13.2393138,65.79225 12.6943138,65.82725 12.1503138,65.91325 C11.6013138,65.93525 11.0423138,66.00625 10.4823138,65.96025 C10.2013138,65.94925 9.91931385,65.93625 9.63731385,65.92525 L8.79431385,65.82425 C8.22731385,65.77825 7.67931385,65.62325 7.11931385,65.52425 L7.01531385,65.50325 L6.98831385,65.49725 L6.93131385,65.48125 L6.88231385,65.46525 L6.68531385,65.40325 L6.29231385,65.28025 C6.02631385,65.18725 5.77531385,65.13925 5.50131385,65.01025 C4.96031385,64.76325 4.40331385,64.54725 3.93331385,64.21825 C2.93431385,63.64425 2.10931385,62.81325 1.47931385,61.91725 C0.818313848,61.03025 0.450313848,60.01225 0.222313848,59.05025 C0.174313848,58.80825 0.128313848,58.56725 0.0813138479,58.33125 C0.0533138479,58.09325 0.0383138479,57.85625 0.0223138479,57.62525 C-0.0306861521,57.16425 0.0263138479,56.71625 0.0343138479,56.29125 C0.0683138479,55.86625 0.145313848,55.46525 0.198313848,55.08325 C0.296313848,54.71025 0.390313848,54.35725 0.476313848,54.02425 C0.595313848,53.70625 0.706313848,53.40625 0.810313848,53.12925 C0.916313848,52.85325 1.05431385,52.61725 1.15531385,52.39925 C1.35531385,51.95325 1.59131385,51.64625 1.72231385,51.42525 C1.86131385,51.20625 1.93631385,51.09125 1.93631385,51.09125 C1.93631385,51.09125 1.88131385,51.21725 1.77831385,51.45425 C1.68031385,51.69425 1.50831385,52.03025 1.36731385,52.48925 C1.29631385,52.71725 1.19331385,52.96025 1.12631385,53.23925 C1.05831385,53.51625 0.984313848,53.81525 0.905313848,54.13625 C0.856313848,54.46025 0.806313848,54.80625 0.751313848,55.16925 C0.740313848,55.53625 0.692313848,55.91825 0.698313848,56.31725 C0.727313848,56.71525 0.705313848,57.13225 0.793313848,57.55225 C0.825313848,57.76225 0.857313848,57.97625 0.890313848,58.19225 C0.945313848,58.40425 1.00231385,58.61825 1.06031385,58.83625 C1.32131385,59.69025 1.70231385,60.56325 2.30331385,61.31825 L2.51631385,61.61225 L2.77031385,61.87425 C2.94431385,62.04425 3.10031385,62.23525 3.29131385,62.39325 C3.68531385,62.69525 4.06231385,63.02325 4.51431385,63.26325 C4.93831385,63.55525 5.40931385,63.72125 5.86431385,63.93125 C6.08531385,64.04025 6.37831385,64.09725 6.63231385,64.18425 L7.02631385,64.30225 L7.22431385,64.36125 L7.27231385,64.37725 L7.28531385,64.38025 C7.22631385,64.36225 7.27631385,64.37725 7.26631385,64.37325 L7.28931385,64.37925 L7.38731385,64.39925 C7.90931385,64.49625 8.42431385,64.65125 8.95031385,64.69825 L9.73431385,64.80325 L10.5193138,64.84525 C11.0383138,64.89025 11.5543138,64.83825 12.0653138,64.84125 C12.5703138,64.78025 13.0793138,64.76825 13.5633138,64.65725 C14.5483138,64.50525 15.4713138,64.21125 16.3363138,63.90325 C17.1863138,63.55625 17.9883138,63.20125 18.6903138,62.79225 C20.1073138,61.99925 21.2123138,61.18325 21.9753138,60.60225 C22.7403138,60.01925 23.1683138,59.66825 23.1683138,59.66825 Z M23.1683138,59.66825" id="flights-tail--body-grey" fill="#67737B" sketch:type="MSShapeGroup"></path>
        <path d="M31.7003138,11.30225 C31.2983138,10.89925 30.6433138,10.89925 30.2413138,11.30225 L28.8663138,12.67725 L22.3023138,12.04025 C21.7493138,12.04425 21.3033138,12.49225 21.3013138,13.04125 C21.3033138,13.59125 21.6583138,13.85125 22.3283138,14.10925 L26.2543138,15.28825 L24.2853138,17.25725 C24.1463138,17.39825 24.0563138,17.56925 24.0133138,17.74825 L21.9353138,17.65625 C21.6913138,17.65425 21.4913138,17.85625 21.4893138,18.10325 C21.4933138,18.34925 21.6913138,18.54825 21.9353138,18.55025 L23.9583138,19.05025 L24.4133138,21.07125 C24.4733138,21.35825 24.6593138,21.51825 24.9053138,21.52025 C25.1523138,21.51925 25.3553138,21.31725 25.3523138,21.07325 L25.2603138,18.98325 C25.4363138,18.94025 25.6043138,18.85325 25.7433138,18.71425 L27.7143138,16.74325 L28.8963138,20.67725 C29.1553138,21.34825 29.4133138,21.70225 29.9643138,21.70425 C30.5153138,21.70325 30.9613138,21.25525 30.9663138,20.70325 L30.3283138,14.12925 L31.6983138,12.75825 C32.1003138,12.35625 32.1013138,11.70625 31.7003138,11.30225 Z M23.1683138,19.66825 C23.1683138,19.66825 23.0743138,19.77025 22.8993138,19.96025 C22.7243138,20.14925 22.4753138,20.43625 22.1263138,20.77325 C21.4413138,21.45625 20.4313138,22.41625 19.0363138,23.35625 C18.3503138,23.84025 17.5473138,24.28425 16.6673138,24.69625 C15.7763138,25.07725 14.8113138,25.46025 13.7583138,25.65725 C13.2393138,25.79225 12.6943138,25.82725 12.1503138,25.91325 C11.6013138,25.93525 11.0423138,26.00625 10.4823138,25.96025 C10.2013138,25.94925 9.91931385,25.93625 9.63731385,25.92525 L8.79431385,25.82425 C8.22731385,25.77825 7.67931385,25.62325 7.11931385,25.52425 L7.01531385,25.50325 L6.98831385,25.49725 L6.93131385,25.48125 L6.88231385,25.46525 L6.68531385,25.40325 L6.29231385,25.28025 C6.02631385,25.18725 5.77531385,25.13925 5.50131385,25.01025 C4.96031385,24.76325 4.40331385,24.54725 3.93331385,24.21825 C2.93431385,23.64425 2.10931385,22.81325 1.47931385,21.91725 C0.818313848,21.03025 0.450313848,20.01225 0.222313848,19.05025 C0.174313848,18.80825 0.128313848,18.56725 0.0813138479,18.33125 C0.0533138479,18.09325 0.0383138479,17.85625 0.0223138479,17.62525 C-0.0306861521,17.16425 0.0263138479,16.71625 0.0343138479,16.29125 C0.0683138479,15.86625 0.145313848,15.46525 0.198313848,15.08325 C0.296313848,14.71025 0.390313848,14.35725 0.476313848,14.02425 C0.595313848,13.70625 0.706313848,13.40625 0.810313848,13.12925 C0.916313848,12.85325 1.05431385,12.61725 1.15531385,12.39925 C1.35531385,11.95325 1.59131385,11.64625 1.72231385,11.42525 C1.86131385,11.20625 1.93631385,11.09125 1.93631385,11.09125 C1.93631385,11.09125 1.88131385,11.21725 1.77831385,11.45425 C1.68031385,11.69425 1.50831385,12.03025 1.36731385,12.48925 C1.29631385,12.71725 1.19331385,12.96025 1.12631385,13.23925 C1.05831385,13.51625 0.984313848,13.81525 0.905313848,14.13625 C0.856313848,14.46025 0.806313848,14.80625 0.751313848,15.16925 C0.740313848,15.53625 0.692313848,15.91825 0.698313848,16.31725 C0.727313848,16.71525 0.705313848,17.13225 0.793313848,17.55225 C0.825313848,17.76225 0.857313848,17.97625 0.890313848,18.19225 C0.945313848,18.40425 1.00231385,18.61825 1.06031385,18.83625 C1.32131385,19.69025 1.70231385,20.56325 2.30331385,21.31825 L2.51631385,21.61225 L2.77031385,21.87425 C2.94431385,22.04425 3.10031385,22.23525 3.29131385,22.39325 C3.68531385,22.69525 4.06231385,23.02325 4.51431385,23.26325 C4.93831385,23.55525 5.40931385,23.72125 5.86431385,23.93125 C6.08531385,24.04025 6.37831385,24.09725 6.63231385,24.18425 L7.02631385,24.30225 L7.22431385,24.36125 L7.27231385,24.37725 L7.28531385,24.38025 C7.22631385,24.36225 7.27631385,24.37725 7.26631385,24.37325 L7.28931385,24.37925 L7.38731385,24.39925 C7.90931385,24.49625 8.42431385,24.65125 8.95031385,24.69825 L9.73431385,24.80325 L10.5193138,24.84525 C11.0383138,24.89025 11.5543138,24.83825 12.0653138,24.84125 C12.5703138,24.78025 13.0793138,24.76825 13.5633138,24.65725 C14.5483138,24.50525 15.4713138,24.21125 16.3363138,23.90325 C17.1863138,23.55625 17.9883138,23.20125 18.6903138,22.79225 C20.1073138,21.99925 21.2123138,21.18325 21.9753138,20.60225 C22.7403138,20.01925 23.1683138,19.66825 23.1683138,19.66825 Z M23.1683138,19.66825" id="flights-tail--title-grey" fill="#3A434E" sketch:type="MSShapeGroup"></path>
    </g>
</svg>

<svg width="32" height="232" viewBox="0 0 32 232" xmlns="http://www.w3.org/2000/svg" xmlns:sketch="http://www.bohemiancoding.com/sketch/ns"><title>flights-tail</title><g sketch:type="MSPage" fill="none"><path d="M31.7 131.302c-.402-.403-1.057-.403-1.459 0l-1.375 1.375-6.564-.637c-.553.004-.999.452-1.001 1.001.002.55.357.81 1.027 1.068l3.926 1.179-1.969 1.969c-.139.141-.229.312-.272.491l-2.078-.092c-.244-.002-.444.2-.446.447.004.246.202.445.446.447l2.023.5.455 2.021c.06.287.246.447.492.449.247-.001.45-.203.447-.447l-.092-2.09c.176-.043.344-.13.483-.269l1.971-1.971 1.182 3.934c.259.671.517 1.025 1.068 1.027.551-.001.997-.449 1.002-1.001l-.638-6.574 1.37-1.371c.402-.402.403-1.052.002-1.456zm-8.532 8.366l-.269.292c-.175.189-.424.476-.773.813-.685.683-1.695 1.643-3.09 2.583-.686.484-1.489.928-2.369 1.34-.891.381-1.856.764-2.909.961-.519.135-1.064.17-1.608.256-.549.022-1.108.093-1.668.047l-.845-.035-.843-.101c-.567-.046-1.115-.201-1.675-.3l-.104-.021-.027-.006-.057-.016-.049-.016-.197-.062-.393-.123c-.266-.093-.517-.141-.791-.27-.541-.247-1.098-.463-1.568-.792-.999-.574-1.824-1.405-2.454-2.301-.661-.887-1.029-1.905-1.257-2.867l-.141-.719c-.028-.238-.043-.475-.059-.706-.053-.461.004-.909.012-1.334.034-.425.111-.826.164-1.208l.278-1.059.334-.895c.106-.276.244-.512.345-.73.2-.446.436-.753.567-.974l.214-.334-.158.363c-.098.24-.27.576-.411 1.035-.071.228-.174.471-.241.75l-.221.897-.154 1.033c-.011.367-.059.749-.053 1.148.029.398.007.815.095 1.235l.097.64.17.644c.261.854.642 1.727 1.243 2.482l.213.294.254.262c.174.17.33.361.521.519.394.302.771.63 1.223.87.424.292.895.458 1.35.668.221.109.514.166.768.253l.394.118.198.059.048.016.013.003-.019-.007.023.006.098.02c.522.097 1.037.252 1.563.299l.784.105.785.042c.519.045 1.035-.007 1.546-.004.505-.061 1.014-.073 1.498-.184.985-.152 1.908-.446 2.773-.754.85-.347 1.652-.702 2.354-1.111 1.417-.793 2.522-1.609 3.285-2.19.765-.583 1.193-.934 1.193-.934zm0 0" fill="#206FAC" sketch:type="MSShapeGroup"/><path d="M31.7 91.302c-.402-.403-1.057-.403-1.459 0l-1.375 1.375-6.564-.637c-.553.004-.999.452-1.001 1.001.002.55.357.81 1.027 1.068l3.926 1.179-1.969 1.969c-.139.141-.229.312-.272.491l-2.078-.092c-.244-.002-.444.2-.446.447.004.246.202.445.446.447l2.023.5.455 2.021c.06.287.246.447.492.449.247-.001.45-.203.447-.447l-.092-2.09c.176-.043.344-.13.483-.269l1.971-1.971 1.182 3.934c.259.671.517 1.025 1.068 1.027.551-.001.997-.449 1.002-1.001l-.638-6.574 1.37-1.371c.402-.402.403-1.052.002-1.456zm-8.532 8.366l-.269.292c-.175.189-.424.476-.773.813-.685.683-1.695 1.643-3.09 2.583-.686.484-1.489.928-2.369 1.34-.891.381-1.856.764-2.909.961-.519.135-1.064.17-1.608.256-.549.022-1.108.093-1.668.047l-.845-.035-.843-.101c-.567-.046-1.115-.201-1.675-.3l-.104-.021-.027-.006-.057-.016-.049-.016-.197-.062-.393-.123c-.266-.093-.517-.141-.791-.27-.541-.247-1.098-.463-1.568-.792-.999-.574-1.824-1.405-2.454-2.301-.661-.887-1.029-1.905-1.257-2.867l-.141-.719c-.028-.238-.043-.475-.059-.706-.053-.461.004-.909.012-1.334.034-.425.111-.826.164-1.208l.278-1.059.334-.895c.106-.276.244-.512.345-.73.2-.446.436-.753.567-.974l.214-.334-.158.363c-.098.24-.27.576-.411 1.035-.071.228-.174.471-.241.75l-.221.897-.154 1.033c-.011.367-.059.749-.053 1.148.029.398.007.815.095 1.235l.097.64.17.644c.261.854.642 1.727 1.243 2.482l.213.294.254.262c.174.17.33.361.521.519.394.302.771.63 1.223.87.424.292.895.458 1.35.668.221.109.514.166.768.253l.394.118.198.059.048.016.013.003-.019-.007.023.006.098.02c.522.097 1.037.252 1.563.299l.784.105.785.042c.519.045 1.035-.007 1.546-.004.505-.061 1.014-.073 1.498-.184.985-.152 1.908-.446 2.773-.754.85-.347 1.652-.702 2.354-1.111 1.417-.793 2.522-1.609 3.285-2.19.765-.583 1.193-.934 1.193-.934zm0 0" fill="#fff" sketch:type="MSShapeGroup"/><path d="M31.7 51.302c-.402-.403-1.057-.403-1.459 0l-1.375 1.375-6.564-.637c-.553.004-.999.452-1.001 1.001.002.55.357.81 1.027 1.068l3.926 1.179-1.969 1.969c-.139.141-.229.312-.272.491l-2.078-.092c-.244-.002-.444.2-.446.447.004.246.202.445.446.447l2.023.5.455 2.021c.06.287.246.447.492.449.247-.001.45-.203.447-.447l-.092-2.09c.176-.043.344-.13.483-.269l1.971-1.971 1.182 3.934c.259.671.517 1.025 1.068 1.027.551-.001.997-.449 1.002-1.001l-.638-6.574 1.37-1.371c.402-.402.403-1.052.002-1.456zm-8.532 8.366l-.269.292c-.175.189-.424.476-.773.813-.685.683-1.695 1.643-3.09 2.583-.686.484-1.489.928-2.369 1.34-.891.381-1.856.764-2.909.961-.519.135-1.064.17-1.608.256-.549.022-1.108.093-1.668.047l-.845-.035-.843-.101c-.567-.046-1.115-.201-1.675-.3l-.104-.021-.027-.006-.057-.016-.049-.016-.197-.062-.393-.123c-.266-.093-.517-.141-.791-.27-.541-.247-1.098-.463-1.568-.792-.999-.574-1.824-1.405-2.454-2.301-.661-.887-1.029-1.905-1.257-2.867l-.141-.719c-.028-.238-.043-.475-.059-.706-.053-.461.004-.909.012-1.334.034-.425.111-.826.164-1.208l.278-1.059.334-.895c.106-.276.244-.512.345-.73.2-.446.436-.753.567-.974l.214-.334-.158.363c-.098.24-.27.576-.411 1.035-.071.228-.174.471-.241.75l-.221.897-.154 1.033c-.011.367-.059.749-.053 1.148.029.398.007.815.095 1.235l.097.64.17.644c.261.854.642 1.727 1.243 2.482l.213.294.254.262c.174.17.33.361.521.519.394.302.771.63 1.223.87.424.292.895.458 1.35.668.221.109.514.166.768.253l.394.118.198.059.048.016.013.003-.019-.007.023.006.098.02c.522.097 1.037.252 1.563.299l.784.105.785.042c.519.045 1.035-.007 1.546-.004.505-.061 1.014-.073 1.498-.184.985-.152 1.908-.446 2.773-.754.85-.347 1.652-.702 2.354-1.111 1.417-.793 2.522-1.609 3.285-2.19.765-.583 1.193-.934 1.193-.934zm0 0" fill="#67737B" sketch:type="MSShapeGroup"/><path d="M31.7 11.302c-.402-.403-1.057-.403-1.459 0l-1.375 1.375-6.564-.637c-.553.004-.999.452-1.001 1.001.002.55.357.81 1.027 1.068l3.926 1.179-1.969 1.969c-.139.141-.229.312-.272.491l-2.078-.092c-.244-.002-.444.2-.446.447.004.246.202.445.446.447l2.023.5.455 2.021c.06.287.246.447.492.449.247-.001.45-.203.447-.447l-.092-2.09c.176-.043.344-.13.483-.269l1.971-1.971 1.182 3.934c.259.671.517 1.025 1.068 1.027.551-.001.997-.449 1.002-1.001l-.638-6.574 1.37-1.371c.402-.402.403-1.052.002-1.456zm-8.532 8.366l-.269.292c-.175.189-.424.476-.773.813-.685.683-1.695 1.643-3.09 2.583-.686.484-1.489.928-2.369 1.34-.891.381-1.856.764-2.909.961-.519.135-1.064.17-1.608.256-.549.022-1.108.093-1.668.047l-.845-.035-.843-.101c-.567-.046-1.115-.201-1.675-.3l-.104-.021-.027-.006-.057-.016-.049-.016-.197-.062-.393-.123c-.266-.093-.517-.141-.791-.27-.541-.247-1.098-.463-1.568-.792-.999-.574-1.824-1.405-2.454-2.301-.661-.887-1.029-1.905-1.257-2.867l-.141-.719c-.028-.238-.043-.475-.059-.706-.053-.461.004-.909.012-1.334.034-.425.111-.826.164-1.208l.278-1.059.334-.895c.106-.276.244-.512.345-.73.2-.446.436-.753.567-.974l.214-.334-.158.363c-.098.24-.27.576-.411 1.035-.071.228-.174.471-.241.75l-.221.897-.154 1.033c-.011.367-.059.749-.053 1.148.029.398.007.815.095 1.235l.097.64.17.644c.261.854.642 1.727 1.243 2.482l.213.294.254.262c.174.17.33.361.521.519.394.302.771.63 1.223.87.424.292.895.458 1.35.668.221.109.514.166.768.253l.394.118.198.059.048.016.013.003-.019-.007.023.006.098.02c.522.097 1.037.252 1.563.299l.784.105.785.042c.519.045 1.035-.007 1.546-.004.505-.061 1.014-.073 1.498-.184.985-.152 1.908-.446 2.773-.754.85-.347 1.652-.702 2.354-1.111 1.417-.793 2.522-1.609 3.285-2.19.765-.583 1.193-.934 1.193-.934zm0 0" fill="#3A434E" sketch:type="MSShapeGroup"/></g></svg>
